;FLAVOR:Marlin
;TIME:8179
;Filament used: 6.5845m
;Layer height: 0.2
;MINX:30.606
;MINY:19.568
;MINZ:0.2
;MAXX:64.969
;MAXY:243.953
;MAXZ:10
;Generated with Cura_SteamEngine 5.2.1
M140 S50
M105
M190 S50
M104 S200
M105
M109 S200
M82 ;absolute extrusion mode
M201 X500.00 Y500.00 Z100.00 E5000.00 ;Setup machine max acceleration
M203 X500.00 Y500.00 Z10.00 E50.00 ;Setup machine max feedrate
M204 P500.00 R1000.00 T500.00 ;Setup Print/Retract/Travel acceleration
M205 X8.00 Y8.00 Z0.40 E5.00 ;Setup Jerk
M220 S100 ;Reset Feedrate
M221 S100 ;Reset Flowrate

G28 ;Home
G29 ;Auto bed Level

G92 E0 ;Reset Extruder
G1 Z2.0 F3000 ;Move Z Axis up
G1 X10.1 Y20 Z0.28 F5000.0 ;Move to start position
G1 X10.1 Y200.0 Z0.28 F1500.0 E15 ;Draw the first line
G1 X10.4 Y200.0 Z0.28 F5000.0 ;Move to side a little
G1 X10.4 Y20 Z0.28 F1500.0 E30 ;Draw the second line
G92 E0 ;Reset Extruder
G1 Z2.0 F3000 ;Move Z Axis up

G92 E0
G92 E0
G1 F2700 E-5
;LAYER_COUNT:50
;LAYER:0
M107
G0 F6000 X32.787 Y22.997 Z0.2
;TYPE:SKIRT
G1 F2700 E0
G1 F1200 X33.31 Y22.404 E0.0263
G1 X33.889 Y21.868 E0.05254
G1 X34.52 Y21.393 E0.07881
G1 X35.374 Y20.891 E0.11176
G1 X36.251 Y20.448 E0.14444
G1 X36.973 Y20.128 E0.1707
G1 X37.724 Y19.883 E0.19698
G1 X38.495 Y19.715 E0.22322
G1 X38.921 Y19.656 E0.23753
G1 X39.278 Y19.617 E0.24947
G1 X40.066 Y19.571 E0.27573
G1 X40.855 Y19.605 E0.30199
G1 X41.653 Y19.723 E0.32882
G1 X53.891 Y19.722 E0.73586
G1 X54.705 Y19.601 E0.76323
G1 X55.494 Y19.568 E0.7895
G1 X56.193 Y19.606 E0.81278
G1 X56.567 Y19.643 E0.82528
G1 X57.348 Y19.76 E0.85155
G1 X58.113 Y19.956 E0.87781
G1 X58.854 Y20.228 E0.90406
G1 X59.328 Y20.449 E0.92146
G1 X60.209 Y20.896 E0.95432
G1 X60.894 Y21.289 E0.98058
G1 X61.537 Y21.748 E1.00686
G1 X62.129 Y22.271 E1.03313
G1 X62.665 Y22.85 E1.05938
G1 X63.14 Y23.481 E1.08564
G1 X63.638 Y24.326 E1.11827
G1 X64.087 Y25.212 E1.1513
G1 X64.407 Y25.934 E1.17757
G1 X64.654 Y26.684 E1.20383
G1 X64.823 Y27.455 E1.23009
G1 X64.882 Y27.879 E1.24432
G1 X64.921 Y28.231 E1.2561
G1 X64.968 Y29.019 E1.28236
G1 X64.935 Y29.808 E1.30862
G1 X64.815 Y30.618 E1.33586
G1 X64.816 Y62.864 E2.40837
G1 X64.936 Y63.678 E2.43573
G1 X64.969 Y64.467 E2.462
G1 X64.929 Y65.182 E2.48581
G1 X64.892 Y65.547 E2.49802
G1 X64.773 Y66.327 E2.52426
G1 X64.575 Y67.092 E2.55054
G1 X64.301 Y67.832 E2.57679
G1 X64.091 Y68.283 E2.59333
G1 X63.642 Y69.17 E2.6264
G1 X63.25 Y69.855 E2.65265
G1 X62.791 Y70.498 E2.67893
G1 X62.269 Y71.091 E2.7052
G1 X61.69 Y71.628 E2.73147
G1 X61.06 Y72.103 E2.75771
G1 X60.203 Y72.608 E2.7908
G1 X59.816 Y72.804 E2.80522
G1 X59.816 Y232.592 E8.11979
G1 X59.919 Y233.156 E8.13886
G1 X59.984 Y234.164 E8.17246
G1 X59.984 Y234.628 E8.18789
G1 X59.944 Y235.417 E8.21417
G1 X59.825 Y236.197 E8.24041
G1 X59.627 Y236.962 E8.26669
G1 X59.349 Y237.711 E8.29327
G1 X58.988 Y238.55 E8.32364
G1 X58.639 Y239.259 E8.34993
G1 X58.221 Y239.928 E8.37617
G1 X57.737 Y240.552 E8.40243
G1 X57.193 Y241.124 E8.42869
G1 X56.636 Y241.605 E8.45316
G1 X56.117 Y242.012 E8.4751
G1 X55.472 Y242.467 E8.50135
G1 X54.784 Y242.855 E8.52762
G1 X54.366 Y243.048 E8.54294
G1 X53.97 Y243.217 E8.55726
G1 X53.189 Y243.502 E8.58491
G1 X52.826 Y243.613 E8.59754
G1 X52.06 Y243.805 E8.6238
G1 X51.279 Y243.919 E8.65005
G1 X50.421 Y243.953 E8.67861
G1 X50.043 Y243.947 E8.69119
G1 X49.255 Y243.895 E8.71745
G1 X48.577 Y243.78 E8.74032
G1 X46.969 Y243.78 E8.79381
G1 X46.391 Y243.884 E8.81334
G1 X45.401 Y243.947 E8.84633
G1 X44.831 Y243.947 E8.86529
G1 X44.042 Y243.907 E8.89157
G1 X43.262 Y243.788 E8.91781
G1 X42.497 Y243.59 E8.94409
G1 X41.757 Y243.316 E8.97034
G1 X41.343 Y243.124 E8.98552
G1 X40.555 Y242.73 E9.01482
G1 X39.867 Y242.341 E9.04111
G1 X39.222 Y241.885 E9.06738
G1 X38.627 Y241.366 E9.09364
G1 X37.899 Y240.559 E9.12979
G1 X37.511 Y240.063 E9.15073
G1 X37.057 Y239.417 E9.177
G1 X36.67 Y238.729 E9.20325
G1 X36.451 Y238.247 E9.22086
G1 X36.297 Y237.876 E9.23422
G1 X36.046 Y237.181 E9.2588
G1 X35.929 Y236.801 E9.27202
G1 X35.735 Y236.036 E9.29827
G1 X35.62 Y235.255 E9.32453
G1 X35.584 Y234.506 E9.34947
G1 X35.584 Y234.127 E9.36207
G1 X35.624 Y233.338 E9.38835
G1 X35.756 Y232.508 E9.4163
G1 X35.756 Y98.559 E13.87146
G1 X35.768 Y93.138 E14.05177
G1 X35.747 Y93.06 E14.05445
G1 X35.621 Y92.281 E14.0807
G1 X35.575 Y91.445 E14.10855
G1 X35.568 Y87.158 E14.25113
G1 X35.576 Y82.703 E14.39931
G1 X35.617 Y81.914 E14.42559
G1 X35.738 Y81.134 E14.45184
G1 X35.768 Y81.021 E14.45573
G1 X35.757 Y76.859 E14.59416
G1 X35.757 Y72.804 E14.72903
G1 X35.384 Y72.616 E14.74292
G1 X34.697 Y72.226 E14.76919
G1 X34.054 Y71.768 E14.79545
G1 X33.46 Y71.248 E14.82171
G1 X32.922 Y70.67 E14.84797
G1 X32.445 Y70.04 E14.87425
G1 X31.926 Y69.159 E14.90826
G1 X31.48 Y68.274 E14.94122
G1 X31.16 Y67.552 E14.96749
G1 X30.916 Y66.801 E14.99375
G1 X30.748 Y66.029 E15.02003
G1 X30.692 Y65.623 E15.03366
G1 X30.653 Y65.271 E15.04544
G1 X30.606 Y64.483 E15.0717
G1 X30.639 Y63.694 E15.09796
G1 X30.759 Y62.884 E15.1252
G1 X30.758 Y30.61 E16.19864
G1 X30.637 Y29.783 E16.22643
G1 X30.607 Y28.994 E16.2527
G1 X30.646 Y28.3 E16.27582
G1 X30.682 Y27.947 E16.28762
G1 X30.802 Y27.166 E16.3139
G1 X31 Y26.402 E16.34015
G1 X31.274 Y25.661 E16.36642
G1 X31.486 Y25.209 E16.38303
G1 X31.935 Y24.324 E16.41604
G1 X32.328 Y23.639 E16.4423
G1 X32.787 Y22.997 E16.46855
G0 F6000 X33.125 Y23.214
G1 F1200 X33.638 Y22.641 E16.49413
G1 X34.207 Y22.124 E16.5197
G1 X34.827 Y21.669 E16.54528
G1 X35.555 Y21.248 E16.57325
G1 X36.432 Y20.805 E16.60593
G1 X37.135 Y20.494 E16.6315
G1 X37.867 Y20.258 E16.65708
G1 X38.964 Y20.054 E16.69419
G1 X39.321 Y20.015 E16.70614
G1 X40.089 Y19.971 E16.73172
G1 X40.858 Y20.007 E16.75733
G1 X41.617 Y20.123 E16.78286
G1 X53.945 Y20.122 E17.19289
G1 X54.039 Y20.099 E17.19611
G1 X54.801 Y19.994 E17.2217
G1 X55.57 Y19.969 E17.24729
G1 X56.154 Y20.004 E17.26675
G1 X56.528 Y20.041 E17.27925
G1 X57.288 Y20.156 E17.30481
G1 X58.032 Y20.35 E17.33038
G1 X58.753 Y20.62 E17.35599
G1 X59.147 Y20.806 E17.37048
G1 X60.028 Y21.253 E17.40334
G1 X60.695 Y21.636 E17.42892
G1 X61.319 Y22.086 E17.45451
G1 X61.892 Y22.599 E17.48009
G1 X62.409 Y23.168 E17.50566
G1 X62.864 Y23.788 E17.53124
G1 X63.281 Y24.507 E17.55888
G1 X63.73 Y25.393 E17.59192
G1 X64.041 Y26.096 E17.61749
G1 X64.278 Y26.828 E17.64308
G1 X64.484 Y27.923 E17.68014
G1 X64.523 Y28.275 E17.69192
G1 X64.568 Y29.043 E17.71751
G1 X64.533 Y29.811 E17.74308
G1 X64.415 Y30.583 E17.76905
G1 X64.416 Y62.918 E18.84452
G1 X64.439 Y63.012 E18.84774
G1 X64.543 Y63.774 E18.87331
G1 X64.568 Y64.543 E18.89891
G1 X64.531 Y65.141 E18.91883
G1 X64.494 Y65.506 E18.93104
G1 X64.377 Y66.266 E18.95661
G1 X64.182 Y67.01 E18.98219
G1 X63.91 Y67.73 E19.00779
G1 X63.734 Y68.102 E19.02148
G1 X63.285 Y68.989 E19.05455
G1 X62.903 Y69.656 E19.08011
G1 X62.453 Y70.28 E19.1057
G1 X61.941 Y70.854 E19.13128
G1 X61.372 Y71.372 E19.15687
G1 X60.752 Y71.828 E19.18247
G1 X60.022 Y72.251 E19.21053
G1 X59.416 Y72.557 E19.23311
G1 X59.416 Y232.619 E24.5568
G1 X59.529 Y233.267 E24.57867
G1 X59.584 Y234.164 E24.60856
G1 X59.584 Y234.628 E24.624
G1 X59.544 Y235.396 E24.64958
G1 X59.425 Y236.156 E24.67516
G1 X59.227 Y236.899 E24.70074
G1 X58.981 Y237.553 E24.72398
G1 X58.62 Y238.392 E24.75436
G1 X58.28 Y239.082 E24.77994
G1 X57.87 Y239.732 E24.8055
G1 X57.395 Y240.337 E24.83108
G1 X56.859 Y240.889 E24.85667
G1 X56.389 Y241.29 E24.87722
G1 X55.87 Y241.697 E24.89916
G1 X55.241 Y242.14 E24.92475
G1 X54.57 Y242.514 E24.9503
G1 X54.209 Y242.68 E24.96351
G1 X53.813 Y242.849 E24.97783
G1 X53.072 Y243.12 E25.00408
G1 X52.709 Y243.231 E25.0167
G1 X51.963 Y243.417 E25.04227
G1 X51.201 Y243.525 E25.06787
G1 X50.428 Y243.553 E25.0936
G1 X50.05 Y243.547 E25.10617
G1 X49.282 Y243.495 E25.13177
G1 X48.622 Y243.38 E25.15406
G1 X46.941 Y243.38 E25.20997
G1 X46.281 Y243.494 E25.23224
G1 X45.401 Y243.547 E25.26157
G1 X44.831 Y243.547 E25.28052
G1 X44.063 Y243.507 E25.3061
G1 X43.303 Y243.388 E25.33169
G1 X42.56 Y243.19 E25.35726
G1 X41.522 Y242.766 E25.39456
G1 X40.734 Y242.372 E25.42386
G1 X40.064 Y241.992 E25.44948
G1 X39.438 Y241.546 E25.47504
G1 X38.862 Y241.037 E25.50061
G1 X38.214 Y240.312 E25.53295
G1 X37.826 Y239.816 E25.55389
G1 X37.385 Y239.187 E25.57944
G1 X37.011 Y238.515 E25.60502
G1 X36.82 Y238.094 E25.6204
G1 X36.666 Y237.723 E25.63376
G1 X36.429 Y237.064 E25.65705
G1 X36.312 Y236.684 E25.67028
G1 X36.124 Y235.938 E25.69587
G1 X36.014 Y235.176 E25.72147
G1 X35.984 Y234.506 E25.74378
G1 X35.984 Y234.127 E25.75638
G1 X36.024 Y233.359 E25.78196
G1 X36.156 Y232.55 E25.80923
G1 X36.156 Y98.56 E30.26575
G1 X36.168 Y93.08 E30.44802
G1 X36.126 Y92.918 E30.45358
G1 X36.011 Y92.158 E30.47915
G1 X35.975 Y91.444 E30.50293
G1 X35.968 Y87.159 E30.64545
G1 X35.976 Y82.704 E30.79362
G1 X36.017 Y81.936 E30.8192
G1 X36.138 Y81.176 E30.8448
G1 X36.168 Y81.065 E30.84862
G1 X36.157 Y76.858 E30.98855
G1 X36.157 Y72.558 E31.13157
G1 X35.564 Y72.259 E31.15366
G1 X34.896 Y71.878 E31.17923
G1 X34.271 Y71.429 E31.20483
G1 X33.696 Y70.919 E31.23039
G1 X33.177 Y70.351 E31.25598
G1 X32.72 Y69.732 E31.28157
G1 X32.283 Y68.979 E31.31053
G1 X31.837 Y68.094 E31.34349
G1 X31.527 Y67.39 E31.36908
G1 X31.291 Y66.658 E31.39466
G1 X31.09 Y65.579 E31.43116
G1 X31.051 Y65.227 E31.44294
G1 X31.006 Y64.459 E31.46853
G1 X31.041 Y63.691 E31.4941
G1 X31.159 Y62.919 E31.52007
G1 X31.158 Y30.558 E32.59641
G1 X31.132 Y30.45 E32.6001
G1 X31.03 Y29.688 E32.62567
G1 X31.008 Y28.919 E32.65126
G1 X31.044 Y28.34 E32.67055
G1 X31.08 Y27.987 E32.68235
G1 X31.198 Y27.227 E32.70794
G1 X31.394 Y26.483 E32.73353
G1 X31.666 Y25.764 E32.75909
G1 X31.843 Y25.39 E32.77286
G1 X32.292 Y24.505 E32.80586
G1 X32.675 Y23.838 E32.83144
G1 X33.125 Y23.214 E32.85703
G0 F6000 X33.463 Y23.433
G1 F1200 X33.965 Y22.879 E32.8819
G1 X34.524 Y22.382 E32.90678
G1 X35.133 Y21.947 E32.93167
G1 X35.735 Y21.605 E32.9547
G1 X36.612 Y21.162 E32.98738
G1 X37.297 Y20.861 E33.01226
G1 X38.01 Y20.634 E33.03715
G1 X39.008 Y20.451 E33.0709
G1 X39.365 Y20.412 E33.08284
G1 X40.112 Y20.371 E33.10772
G1 X40.859 Y20.41 E33.1326
G1 X41.565 Y20.523 E33.15638
G1 X53.997 Y20.522 E33.56987
G1 X54.155 Y20.484 E33.57528
G1 X54.896 Y20.388 E33.60013
G1 X55.644 Y20.371 E33.62501
G1 X56.114 Y20.402 E33.64068
G1 X56.488 Y20.439 E33.65318
G1 X57.228 Y20.552 E33.67808
G1 X57.951 Y20.744 E33.70296
G1 X58.966 Y21.163 E33.73948
G1 X59.847 Y21.61 E33.77234
G1 X60.495 Y21.983 E33.79721
G1 X61.1 Y22.424 E33.82211
G1 X61.654 Y22.926 E33.84697
G1 X62.151 Y23.485 E33.87185
G1 X62.586 Y24.094 E33.89674
G1 X62.924 Y24.688 E33.91947
G1 X63.373 Y25.574 E33.95251
G1 X63.675 Y26.258 E33.97738
G1 X63.902 Y26.971 E34.00227
G1 X64.086 Y27.967 E34.03596
G1 X64.125 Y28.319 E34.04773
G1 X64.168 Y29.066 E34.07262
G1 X64.131 Y29.813 E34.0975
G1 X64.015 Y30.545 E34.12215
G1 X64.016 Y62.972 E35.20067
G1 X64.053 Y63.127 E35.20597
G1 X64.149 Y63.869 E35.23086
G1 X64.165 Y64.617 E35.25574
G1 X64.133 Y65.101 E35.27188
G1 X64.096 Y65.466 E35.28408
G1 X63.981 Y66.205 E35.30895
G1 X63.788 Y66.928 E35.33384
G1 X63.377 Y67.921 E35.36959
G1 X62.928 Y68.808 E35.40265
G1 X62.555 Y69.457 E35.42755
G1 X62.115 Y70.062 E35.45243
G1 X61.613 Y70.616 E35.4773
G1 X61.055 Y71.114 E35.50217
G1 X60.446 Y71.549 E35.52706
G1 X59.842 Y71.894 E35.5502
G1 X59.016 Y72.312 E35.58099
G1 X59.016 Y232.639 E40.91349
G1 X59.14 Y233.377 E40.93838
G1 X59.184 Y234.164 E40.96459
G1 X59.184 Y234.628 E40.98003
G1 X59.144 Y235.375 E41.00491
G1 X59.025 Y236.113 E41.02977
G1 X58.827 Y236.835 E41.05467
G1 X58.614 Y237.395 E41.0746
G1 X58.253 Y238.234 E41.10498
G1 X57.921 Y238.904 E41.12985
G1 X57.519 Y239.535 E41.15473
G1 X57.053 Y240.12 E41.17961
G1 X56.526 Y240.651 E41.20449
G1 X56.143 Y240.975 E41.22118
G1 X55.624 Y241.382 E41.24311
G1 X55.011 Y241.812 E41.26802
G1 X54.052 Y242.312 E41.30399
G1 X53.656 Y242.481 E41.31831
G1 X52.955 Y242.737 E41.34313
G1 X52.592 Y242.848 E41.35576
G1 X51.866 Y243.028 E41.38063
G1 X51.125 Y243.13 E41.40551
G1 X50.434 Y243.153 E41.42851
G1 X50.056 Y243.147 E41.44108
G1 X49.31 Y243.095 E41.46595
G1 X48.663 Y242.98 E41.48781
G1 X46.917 Y242.98 E41.54588
G1 X46.172 Y243.104 E41.571
G1 X45.401 Y243.147 E41.59668
G1 X44.831 Y243.147 E41.61564
G1 X44.084 Y243.107 E41.64052
G1 X43.346 Y242.988 E41.66539
G1 X42.624 Y242.79 E41.69029
G1 X41.701 Y242.408 E41.72351
G1 X40.913 Y242.014 E41.75281
G1 X40.262 Y241.644 E41.77772
G1 X39.655 Y241.207 E41.8026
G1 X39.098 Y240.708 E41.82747
G1 X38.53 Y240.066 E41.85598
G1 X38.142 Y239.57 E41.87692
G1 X37.713 Y238.957 E41.90181
G1 X37.352 Y238.302 E41.92669
G1 X37.19 Y237.941 E41.93985
G1 X37.036 Y237.57 E41.95321
G1 X36.811 Y236.946 E41.97527
G1 X36.694 Y236.566 E41.98849
G1 X36.512 Y235.84 E42.01339
G1 X36.409 Y235.099 E42.03827
G1 X36.384 Y234.506 E42.05801
G1 X36.384 Y234.127 E42.07062
G1 X36.424 Y233.38 E42.0955
G1 X36.543 Y232.642 E42.12036
G1 X36.556 Y232.595 E42.12198
G1 X36.556 Y98.561 E46.57997
G1 X36.568 Y93.025 E46.7641
G1 X36.506 Y92.777 E46.7726
G1 X36.401 Y92.037 E46.79746
G1 X36.375 Y91.444 E46.8172
G1 X36.368 Y87.159 E46.95972
G1 X36.376 Y82.704 E47.1079
G1 X36.417 Y81.958 E47.13275
G1 X36.538 Y81.219 E47.15765
G1 X36.568 Y81.111 E47.16138
G1 X36.557 Y76.857 E47.30287
G1 X36.557 Y72.31 E47.4541
G1 X35.744 Y71.901 E47.48437
G1 X35.094 Y71.53 E47.50927
G1 X34.488 Y71.091 E47.53415
G1 X33.933 Y70.59 E47.55902
G1 X33.434 Y70.033 E47.5839
G1 X32.997 Y69.426 E47.60877
G1 X32.64 Y68.799 E47.63277
G1 X32.194 Y67.914 E47.66573
G1 X31.893 Y67.229 E47.69062
G1 X31.668 Y66.516 E47.71548
G1 X31.488 Y65.535 E47.74866
G1 X31.449 Y65.183 E47.76044
G1 X31.406 Y64.436 E47.78532
G1 X31.443 Y63.689 E47.8102
G1 X31.559 Y62.957 E47.83485
G1 X31.558 Y30.505 E48.91421
G1 X31.518 Y30.336 E48.91998
G1 X31.424 Y29.594 E48.94486
G1 X31.41 Y28.846 E48.96974
G1 X31.442 Y28.381 E48.98524
G1 X31.478 Y28.028 E48.99705
G1 X31.594 Y27.289 E49.02193
G1 X31.787 Y26.566 E49.04682
G1 X32.199 Y25.571 E49.08263
G1 X32.648 Y24.686 E49.11564
G1 X33.022 Y24.038 E49.14053
G1 X33.463 Y23.433 E49.16543
G0 F6000 X33.8 Y23.653
G1 F1200 X34.292 Y23.119 E49.18958
G1 X34.84 Y22.642 E49.21374
G1 X35.437 Y22.229 E49.23789
G1 X35.915 Y21.962 E49.2561
G1 X36.792 Y21.519 E49.28878
G1 X37.458 Y21.228 E49.31295
G1 X38.151 Y21.011 E49.3371
G1 X39.051 Y20.849 E49.36752
G1 X39.408 Y20.81 E49.37946
G1 X40.134 Y20.771 E49.40364
G1 X40.859 Y20.812 E49.4278
G1 X41.521 Y20.923 E49.45012
G1 X54.049 Y20.922 E49.8668
G1 X54.269 Y20.87 E49.87432
G1 X54.99 Y20.782 E49.89848
G1 X56.075 Y20.8 E49.93457
G1 X56.449 Y20.837 E49.94707
G1 X57.167 Y20.948 E49.97124
G1 X57.868 Y21.138 E49.99539
G1 X58.785 Y21.519 E50.02842
G1 X59.666 Y21.966 E50.06128
G1 X60.295 Y22.33 E50.08545
G1 X60.88 Y22.761 E50.10962
G1 X61.414 Y23.253 E50.13377
G1 X61.891 Y23.801 E50.15793
G1 X62.304 Y24.398 E50.18208
G1 X62.567 Y24.869 E50.20002
G1 X63.016 Y25.755 E50.23306
G1 X63.308 Y26.42 E50.25721
G1 X63.526 Y27.113 E50.28138
G1 X63.689 Y28.011 E50.31173
G1 X63.728 Y28.363 E50.32351
G1 X63.768 Y29.088 E50.34766
G1 X63.728 Y29.814 E50.37184
G1 X63.615 Y30.494 E50.39477
G1 X63.616 Y63.024 E51.47672
G1 X63.667 Y63.241 E51.48414
G1 X63.755 Y63.962 E51.5083
G1 X63.762 Y64.689 E51.53248
G1 X63.735 Y65.061 E51.54488
G1 X63.698 Y65.426 E51.55709
G1 X63.585 Y66.143 E51.58123
G1 X63.394 Y66.844 E51.60539
G1 X63.021 Y67.741 E51.6377
G1 X62.572 Y68.628 E51.67077
G1 X62.208 Y69.257 E51.69494
G1 X61.778 Y69.842 E51.71909
G1 X61.286 Y70.377 E51.74326
G1 X60.739 Y70.854 E51.7674
G1 X60.142 Y71.268 E51.79157
G1 X59.661 Y71.537 E51.8099
G1 X58.616 Y72.065 E51.84884
G1 X58.616 Y232.698 E57.19151
G1 X58.635 Y232.767 E57.19389
G1 X58.749 Y233.485 E57.21807
G1 X58.784 Y234.164 E57.24069
G1 X58.784 Y234.628 E57.25612
G1 X58.744 Y235.353 E57.28027
G1 X58.625 Y236.07 E57.30444
G1 X58.427 Y236.769 E57.32861
G1 X58.247 Y237.237 E57.34528
G1 X57.886 Y238.076 E57.37566
G1 X57.562 Y238.726 E57.39982
G1 X57.169 Y239.337 E57.42398
G1 X56.712 Y239.901 E57.44813
G1 X56.195 Y240.411 E57.47228
G1 X55.896 Y240.661 E57.48524
G1 X55.377 Y241.068 E57.50718
G1 X54.781 Y241.484 E57.53135
G1 X53.895 Y241.944 E57.56456
G1 X53.499 Y242.113 E57.57888
G1 X52.838 Y242.355 E57.60229
G1 X52.475 Y242.466 E57.61491
G1 X51.77 Y242.639 E57.63906
