;FLAVOR:Marlin
;TIME:10539
;Filament used: 9.0619m
;Layer height: 0.2
;MINX:14.971
;MINY:19.518
;MINZ:0.2
;MAXX:113.561
;MAXY:141.118
;MAXZ:5
;Generated with Cura_SteamEngine 5.2.1
M140 S50
M105
M190 S50
M104 S200
M105
M109 S200
M82 ;absolute extrusion mode
M201 X500.00 Y500.00 Z100.00 E5000.00 ;Setup machine max acceleration
M203 X500.00 Y500.00 Z10.00 E50.00 ;Setup machine max feedrate
M204 P500.00 R1000.00 T500.00 ;Setup Print/Retract/Travel acceleration
M205 X8.00 Y8.00 Z0.40 E5.00 ;Setup Jerk
M220 S100 ;Reset Feedrate
M221 S100 ;Reset Flowrate

G28 ;Home
G29 ;Auto bed Level

G92 E0 ;Reset Extruder
G1 Z2.0 F3000 ;Move Z Axis up
G1 X10.1 Y20 Z0.28 F5000.0 ;Move to start position
G1 X10.1 Y200.0 Z0.28 F1500.0 E15 ;Draw the first line
G1 X10.4 Y200.0 Z0.28 F5000.0 ;Move to side a little
G1 X10.4 Y20 Z0.28 F1500.0 E30 ;Draw the second line
G92 E0 ;Reset Extruder
G1 Z2.0 F3000 ;Move Z Axis up

G92 E0
G92 E0
G1 F2700 E-5
;LAYER_COUNT:25
;LAYER:0
M107
G0 F6000 X17.934 Y21.199 Z0.2
;TYPE:SKIRT
G1 F2700 E0
G1 F1200 X18.577 Y20.741 E0.02626
G1 X19.264 Y20.351 E0.05253
G1 X19.986 Y20.032 E0.07878
G1 X20.737 Y19.788 E0.10505
G1 X21.509 Y19.621 E0.13132
G1 X22.294 Y19.533 E0.15759
G1 X22.771 Y19.518 E0.17347
G1 X105.771 Y19.518 E2.93406
G1 X106.56 Y19.558 E2.96033
G1 X107.34 Y19.677 E2.98658
G1 X108.105 Y19.875 E3.01286
G1 X108.845 Y20.149 E3.0391
G1 X109.554 Y20.497 E3.06537
G1 X110.225 Y20.915 E3.09167
G1 X110.849 Y21.398 E3.11791
G1 X111.422 Y21.941 E3.14417
G1 X111.937 Y22.54 E3.17044
G1 X112.388 Y23.188 E3.1967
G1 X112.772 Y23.879 E3.22299
G1 X113.084 Y24.604 E3.24924
G1 X113.321 Y25.357 E3.2755
G1 X113.48 Y26.131 E3.30178
G1 X113.561 Y26.916 E3.32803
G1 X113.561 Y27.706 E3.35431
G1 X113.522 Y28.193 E3.37055
G1 X113.447 Y28.857 E3.39278
G1 X113.318 Y29.637 E3.41908
G1 X113.062 Y30.549 E3.45058
G1 X112.84 Y31.186 E3.47302
G1 X112.542 Y31.918 E3.4993
G1 X112.077 Y32.771 E3.53162
G1 X111.718 Y33.342 E3.55405
G1 X111.265 Y33.988 E3.58029
G1 X110.63 Y34.705 E3.61215
G1 X110.158 Y35.177 E3.63435
G1 X109.572 Y35.707 E3.66063
G1 X108.786 Y36.271 E3.6928
G1 X108.215 Y36.629 E3.71522
G1 X107.526 Y37.014 E3.74147
G1 X106.646 Y37.383 E3.77321
G1 X106.011 Y37.605 E3.79558
G1 X105.253 Y37.828 E3.82186
G1 X104.32 Y37.992 E3.85337
G1 X103.653 Y38.068 E3.8757
G1 X102.77 Y38.118 E3.90511
G1 X93.571 Y38.118 E4.21107
G1 X93.571 Y128.317 E7.2111
G1 X93.541 Y128.996 E7.23371
G1 X93.465 Y129.866 E7.26276
G1 X93.357 Y130.648 E7.28901
G1 X93.229 Y131.205 E7.30802
G1 X93.004 Y132.045 E7.33695
G1 X92.762 Y132.797 E7.36322
G1 X92.538 Y133.325 E7.3823
G1 X92.168 Y134.118 E7.4114
G1 X91.799 Y134.816 E7.43766
G1 X91.489 Y135.295 E7.45664
G1 X90.991 Y136.006 E7.48551
G1 X90.506 Y136.629 E7.51177
G1 X90.117 Y137.046 E7.53074
G1 X89.499 Y137.664 E7.55981
G1 X88.913 Y138.194 E7.58609
G1 X88.459 Y138.538 E7.60503
G1 X87.748 Y139.036 E7.6339
G1 X87.079 Y139.455 E7.66016
G1 X86.574 Y139.714 E7.67903
G1 X85.782 Y140.084 E7.70811
G1 X85.051 Y140.381 E7.73435
G1 X84.497 Y140.552 E7.75364
G1 X83.656 Y140.777 E7.78259
G1 X82.884 Y140.942 E7.80885
G1 X82.319 Y141.012 E7.82778
G1 X81.449 Y141.088 E7.85683
G1 X80.77 Y141.118 E7.87944
G1 X47.772 Y141.118 E8.97695
G1 X47.094 Y141.088 E8.99953
G1 X46.223 Y141.012 E9.02861
G1 X45.441 Y140.904 E9.05486
G1 X44.883 Y140.776 E9.0739
G1 X44.043 Y140.551 E9.10283
G1 X43.291 Y140.309 E9.1291
G1 X42.76 Y140.084 E9.14828
G1 X41.968 Y139.714 E9.17736
G1 X41.27 Y139.344 E9.20363
G1 X40.794 Y139.036 E9.22249
G1 X40.083 Y138.538 E9.25136
G1 X39.46 Y138.053 E9.27762
G1 X39.047 Y137.669 E9.29638
G1 X38.428 Y137.051 E9.32547
G1 X37.898 Y136.465 E9.35175
G1 X37.546 Y136 E9.37115
G1 X37.049 Y135.289 E9.4
G1 X36.63 Y134.619 E9.42628
G1 X36.377 Y134.125 E9.44474
G1 X36.006 Y133.332 E9.47386
G1 X35.708 Y132.601 E9.50012
G1 X35.534 Y132.037 E9.51975
G1 X35.31 Y131.197 E9.54867
G1 X35.146 Y130.424 E9.57495
G1 X35.077 Y129.867 E9.59362
G1 X35.001 Y128.999 E9.6226
G1 X34.971 Y128.319 E9.64523
G1 X34.971 Y38.118 E12.64533
G1 X25.772 Y38.118 E12.95129
G1 X24.89 Y38.068 E12.98067
G1 X24.222 Y37.992 E13.00304
G1 X23.443 Y37.863 E13.0293
G1 X22.53 Y37.605 E13.06085
G1 X21.895 Y37.383 E13.08323
G1 X21.164 Y37.085 E13.10948
G1 X20.326 Y36.629 E13.14121
G1 X19.755 Y36.271 E13.16363
G1 X19.108 Y35.818 E13.1899
G1 X18.383 Y35.177 E13.22209
G1 X17.911 Y34.705 E13.24429
G1 X17.381 Y34.119 E13.27057
G1 X16.817 Y33.333 E13.30274
G1 X16.459 Y32.762 E13.32516
G1 X16.074 Y32.073 E13.35141
G1 X15.706 Y31.196 E13.38304
G1 X15.483 Y30.559 E13.40549
G1 X15.26 Y29.802 E13.43174
G1 X15.093 Y28.846 E13.46402
G1 X15.019 Y28.182 E13.48624
G1 X14.971 Y27.394 E13.5125
G1 X15.004 Y26.605 E13.53876
G1 X15.116 Y25.823 E13.56504
G1 X15.306 Y25.057 E13.59129
G1 X15.573 Y24.313 E13.61758
G1 X15.914 Y23.601 E13.64383
G1 X16.325 Y22.927 E13.67009
G1 X16.802 Y22.297 E13.69637
G1 X17.34 Y21.719 E13.72264
G1 X17.934 Y21.199 E13.74889
G0 F6000 X18.34 Y21.391
G1 F1200 X18.98 Y20.963 E13.7745
G1 X19.66 Y20.604 E13.80008
G1 X20.373 Y20.317 E13.82564
G1 X21.113 Y20.106 E13.85123
G1 X21.871 Y19.973 E13.87683
G1 X22.771 Y19.918 E13.90682
G1 X105.771 Y19.918 E16.66741
G1 X106.539 Y19.958 E16.69299
G1 X107.299 Y20.077 E16.71857
G1 X108.042 Y20.275 E16.74415
G1 X108.761 Y20.549 E16.76974
G1 X109.447 Y20.896 E16.79531
G1 X110.094 Y21.312 E16.82089
G1 X110.694 Y21.793 E16.84647
G1 X111.241 Y22.334 E16.87206
G1 X111.729 Y22.929 E16.89765
G1 X112.152 Y23.571 E16.92323
G1 X112.507 Y24.254 E16.94883
G1 X112.788 Y24.969 E16.97438
G1 X112.994 Y25.711 E16.99999
G1 X113.122 Y26.469 E17.02556
G1 X113.171 Y27.237 E17.05116
G1 X113.124 Y28.149 E17.08153
G1 X113.049 Y28.813 E17.10375
G1 X112.923 Y29.571 E17.12931
G1 X112.684 Y30.417 E17.15855
G1 X112.462 Y31.054 E17.18099
G1 X112.171 Y31.766 E17.20657
G1 X111.739 Y32.558 E17.23658
G1 X111.38 Y33.129 E17.25901
G1 X110.937 Y33.758 E17.2846
G1 X110.348 Y34.423 E17.31414
G1 X109.876 Y34.895 E17.33634
G1 X109.304 Y35.409 E17.36192
G1 X108.574 Y35.932 E17.39179
G1 X108.003 Y36.29 E17.41421
G1 X107.331 Y36.664 E17.43979
G1 X106.514 Y37.005 E17.46923
G1 X105.879 Y37.227 E17.4916
G1 X105.141 Y37.443 E17.51718
G1 X104.275 Y37.594 E17.54642
G1 X103.608 Y37.67 E17.56875
G1 X102.77 Y37.718 E17.59666
G1 X93.171 Y37.718 E17.91593
G1 X93.171 Y128.317 E20.92926
G1 X93.143 Y128.961 E20.9507
G1 X93.067 Y129.831 E20.97975
G1 X92.96 Y130.593 E21.00534
G1 X92.843 Y131.102 E21.02271
G1 X92.618 Y131.942 E21.05164
G1 X92.381 Y132.673 E21.0772
G1 X92.176 Y133.156 E21.09465
G1 X91.806 Y133.949 E21.12375
G1 X91.445 Y134.628 E21.14933
G1 X91.161 Y135.065 E21.16666
G1 X90.663 Y135.776 E21.19553
G1 X90.19 Y136.383 E21.22113
G1 X89.835 Y136.764 E21.23845
G1 X89.217 Y137.382 E21.26752
G1 X88.645 Y137.896 E21.2931
G1 X88.229 Y138.21 E21.31043
G1 X87.518 Y138.708 E21.3393
G1 X86.866 Y139.116 E21.36488
G1 X86.405 Y139.351 E21.3821
G1 X85.613 Y139.721 E21.41117
G1 X84.9 Y140.01 E21.43676
G1 X84.394 Y140.166 E21.45437
G1 X83.553 Y140.391 E21.48333
G1 X82.8 Y140.55 E21.50892
G1 X82.284 Y140.614 E21.52622
G1 X81.414 Y140.69 E21.55526
G1 X80.77 Y140.718 E21.5767
G1 X47.772 Y140.718 E22.67422
G1 X47.129 Y140.69 E22.69563
G1 X46.258 Y140.614 E22.72471
G1 X45.496 Y140.507 E22.7503
G1 X44.986 Y140.39 E22.7677
G1 X44.146 Y140.165 E22.79663
G1 X43.415 Y139.928 E22.82219
G1 X42.929 Y139.721 E22.83975
G1 X42.137 Y139.351 E22.86883
G1 X41.458 Y138.99 E22.89441
G1 X41.024 Y138.708 E22.91162
G1 X40.313 Y138.21 E22.94049
G1 X39.706 Y137.737 E22.96609
G1 X39.33 Y137.386 E22.9832
G1 X38.711 Y136.768 E23.01229
G1 X38.195 Y136.197 E23.03789
G1 X37.874 Y135.771 E23.05563
G1 X37.377 Y135.06 E23.08448
G1 X36.97 Y134.407 E23.11007
G1 X36.739 Y133.956 E23.12692
G1 X36.368 Y133.163 E23.15604
G1 X36.079 Y132.45 E23.18163
G1 X35.921 Y131.934 E23.19958
G1 X35.697 Y131.094 E23.2285
G1 X35.538 Y130.341 E23.25409
G1 X35.475 Y129.832 E23.27115
G1 X35.399 Y128.964 E23.30013
G1 X35.371 Y128.319 E23.3216
G1 X35.371 Y37.718 E26.33501
G1 X25.772 Y37.718 E26.65427
G1 X24.935 Y37.671 E26.68215
G1 X24.267 Y37.595 E26.70451
G1 X23.509 Y37.468 E26.73008
G1 X22.662 Y37.227 E26.75937
G1 X22.027 Y37.005 E26.78174
G1 X21.315 Y36.714 E26.80732
G1 X20.538 Y36.29 E26.83676
G1 X19.967 Y35.932 E26.85918
G1 X19.338 Y35.49 E26.88475
G1 X18.665 Y34.895 E26.91463
G1 X18.193 Y34.423 E26.93683
G1 X17.679 Y33.851 E26.9624
G1 X17.156 Y33.121 E26.99227
G1 X16.798 Y32.55 E27.01469
G1 X16.424 Y31.878 E27.04027
G1 X16.084 Y31.064 E27.06961
G1 X15.861 Y30.427 E27.09206
G1 X15.645 Y29.689 E27.11763
G1 X15.491 Y28.802 E27.14757
G1 X15.417 Y28.138 E27.1698
G1 X15.371 Y27.37 E27.19539
G1 X15.406 Y26.601 E27.22099
G1 X15.52 Y25.841 E27.24655
G1 X15.712 Y25.096 E27.27214
G1 X15.981 Y24.375 E27.29773
G1 X16.323 Y23.687 E27.32329
G1 X16.735 Y23.037 E27.34888
G1 X17.212 Y22.434 E27.37446
G1 X17.749 Y21.883 E27.40005
G1 X18.34 Y21.391 E27.42562
G0 F6000 X18.746 Y21.591
G1 F1200 X19.38 Y21.194 E27.4505
G1 X20.053 Y20.867 E27.47539
G1 X20.757 Y20.614 E27.50027
G1 X21.484 Y20.437 E27.52516
G1 X22.225 Y20.339 E27.55002
G1 X22.771 Y20.318 E27.56819
G1 X105.771 Y20.318 E30.32878
G1 X106.518 Y20.358 E30.35366
G1 X107.256 Y20.477 E30.37853
G1 X107.978 Y20.675 E30.40343
G1 X108.674 Y20.948 E30.42829
G1 X109.337 Y21.295 E30.45318
G1 X109.96 Y21.71 E30.47808
G1 X110.534 Y22.189 E30.50294
G1 X111.055 Y22.726 E30.52783
G1 X111.514 Y23.316 E30.55269
G1 X111.909 Y23.952 E30.57759
G1 X112.233 Y24.626 E30.60247
G1 X112.483 Y25.331 E30.62735
G1 X112.657 Y26.059 E30.65224
G1 X112.752 Y26.801 E30.67712
G1 X112.767 Y27.549 E30.702
G1 X112.727 Y28.104 E30.72051
G1 X112.652 Y28.768 E30.74274
G1 X112.528 Y29.505 E30.76759
G1 X112.306 Y30.286 E30.7946
G1 X112.084 Y30.923 E30.81704
G1 X111.8 Y31.615 E30.84191
G1 X111.4 Y32.345 E30.8696
G1 X111.041 Y32.916 E30.89203
G1 X110.61 Y33.527 E30.9169
G1 X110.065 Y34.14 E30.94418
G1 X109.593 Y34.612 E30.96639
G1 X109.036 Y35.112 E30.99128
G1 X108.361 Y35.593 E31.01885
G1 X107.79 Y35.951 E31.04126
G1 X107.136 Y36.314 E31.06614
G1 X106.382 Y36.628 E31.09331
G1 X105.747 Y36.85 E31.11568
G1 X105.029 Y37.059 E31.14055
G1 X104.229 Y37.197 E31.16756
G1 X103.562 Y37.273 E31.18988
G1 X102.77 Y37.318 E31.21627
G1 X92.771 Y37.318 E31.54884
G1 X92.771 Y128.317 E34.57547
G1 X92.744 Y128.926 E34.59575
G1 X92.668 Y129.796 E34.6248
G1 X92.564 Y130.537 E34.64968
G1 X92.457 Y130.998 E34.66542
G1 X92.232 Y131.838 E34.69435
G1 X92 Y132.549 E34.71922
G1 X91.813 Y132.987 E34.73506
G1 X91.443 Y133.78 E34.76417
G1 X91.091 Y134.44 E34.78905
G1 X90.833 Y134.836 E34.80477
G1 X90.335 Y135.547 E34.83364
G1 X89.874 Y136.136 E34.85852
G1 X89.552 Y136.481 E34.87421
G1 X88.934 Y137.099 E34.90328
G1 X88.377 Y137.599 E34.92818
G1 X88 Y137.882 E34.94385
G1 X87.289 Y138.38 E34.97273
G1 X86.654 Y138.776 E34.99762
G1 X86.236 Y138.989 E35.01322
G1 X85.444 Y139.359 E35.04229
G1 X84.75 Y139.639 E35.06719
G1 X84.29 Y139.779 E35.08318
G1 X83.449 Y140.004 E35.11213
G1 X82.717 Y140.159 E35.13702
G1 X82.249 Y140.215 E35.1527
G1 X81.379 Y140.291 E35.18174
G1 X80.77 Y140.318 E35.20202
G1 X47.772 Y140.318 E36.29954
G1 X47.164 Y140.292 E36.31978
G1 X46.293 Y140.216 E36.34886
G1 X45.552 Y140.111 E36.37375
G1 X45.09 Y140.004 E36.38952
G1 X44.25 Y139.779 E36.41844
G1 X43.539 Y139.547 E36.44332
G1 X43.098 Y139.359 E36.45926
G1 X42.306 Y138.989 E36.48834
G1 X41.646 Y138.637 E36.51322
G1 X41.253 Y138.38 E36.52884
G1 X40.542 Y137.882 E36.55771
G1 X39.953 Y137.421 E36.58259
G1 X39.612 Y137.103 E36.59809
G1 X38.993 Y136.485 E36.62719
G1 X38.493 Y135.929 E36.65206
G1 X38.202 Y135.541 E36.66819
G1 X37.705 Y134.83 E36.69704
G1 X37.31 Y134.195 E36.72191
G1 X37.102 Y133.786 E36.73717
G1 X36.731 Y132.993 E36.76629
G1 X36.45 Y132.3 E36.79117
G1 X36.307 Y131.831 E36.80747
G1 X36.083 Y130.991 E36.83639
G1 X35.93 Y130.259 E36.86126
G1 X35.874 Y129.798 E36.87671
G1 X35.798 Y128.93 E36.90569
G1 X35.771 Y128.319 E36.92603
G1 X35.771 Y37.318 E39.95273
G1 X25.772 Y37.318 E40.2853
G1 X24.981 Y37.273 E40.31165
G1 X24.313 Y37.197 E40.33401
G1 X23.575 Y37.073 E40.3589
G1 X22.794 Y36.85 E40.38592
G1 X22.159 Y36.628 E40.40829
G1 X21.467 Y36.344 E40.43317
G1 X20.751 Y35.951 E40.46034
G1 X20.18 Y35.593 E40.48275
G1 X19.568 Y35.162 E40.50765
G1 X18.948 Y34.612 E40.53521
G1 X18.476 Y34.14 E40.55742
G1 X17.976 Y33.583 E40.58231
G1 X17.495 Y32.908 E40.60988
G1 X17.137 Y32.337 E40.63229
G1 X16.774 Y31.683 E40.65717
G1 X16.461 Y30.932 E40.68423
G1 X16.238 Y30.295 E40.70668
G1 X16.029 Y29.577 E40.73155
G1 X15.888 Y28.757 E40.75923
G1 X15.814 Y28.093 E40.78145
G1 X15.771 Y27.346 E40.80633
G1 X15.808 Y26.599 E40.83121
G1 X15.924 Y25.86 E40.85609
G1 X16.119 Y25.138 E40.88096
G1 X16.39 Y24.441 E40.90584
G1 X16.733 Y23.776 E40.93072
G1 X17.146 Y23.152 E40.95561
G1 X17.622 Y22.576 E40.98047
G1 X18.158 Y22.053 E41.00537
G1 X18.746 Y21.591 E41.03025
G0 F6000 X19.15 Y21.8
G1 F1200 X19.779 Y21.435 E41.05443
G1 X20.443 Y21.142 E41.07857
G1 X21.136 Y20.924 E41.10274
G1 X21.848 Y20.783 E41.12688
G1 X22.771 Y20.718 E41.15765
G1 X105.771 Y20.718 E43.91824
G1 X106.496 Y20.758 E43.94239
G1 X107.213 Y20.877 E43.96657
G1 X107.912 Y21.075 E43.99073
G1 X108.585 Y21.348 E44.01489
G1 X109.224 Y21.693 E44.03904
G1 X109.821 Y22.107 E44.0632
G1 X110.369 Y22.583 E44.08734
G1 X110.862 Y23.117 E44.11152
G1 X111.292 Y23.702 E44.13567
G1 X111.656 Y24.331 E44.15984
G1 X111.949 Y24.996 E44.18401
G1 X112.167 Y25.689 E44.20817
G1 X112.307 Y26.401 E44.2323
G1 X112.368 Y27.125 E44.25647
G1 X112.329 Y28.059 E44.28756
G1 X112.254 Y28.723 E44.30979
G1 X112.133 Y29.439 E44.33394
G1 X111.928 Y30.154 E44.35868
G1 X111.706 Y30.791 E44.38111
G1 X111.43 Y31.463 E44.40528
G1 X111.061 Y32.132 E44.43069
G1 X110.702 Y32.703 E44.45312
G1 X110.283 Y33.296 E44.47727
G1 X109.782 Y33.857 E44.50229
G1 X109.31 Y34.329 E44.52449
G1 X108.769 Y34.813 E44.54863
G1 X108.149 Y35.254 E44.57394
G1 X107.578 Y35.612 E44.59635
G1 X106.942 Y35.963 E44.62052
G1 X106.25 Y36.25 E44.64543
G1 X105.615 Y36.472 E44.66781
G1 X104.917 Y36.674 E44.69197
G1 X104.184 Y36.8 E44.71671
G1 X103.517 Y36.876 E44.73904
G1 X102.77 Y36.918 E44.76392
G1 X92.371 Y36.918 E45.1098
G1 X92.371 Y128.317 E48.14974
G1 X92.346 Y128.891 E48.16885
G1 X92.27 Y129.761 E48.1979
G1 X92.167 Y130.48 E48.22205
G1 X92.07 Y130.895 E48.23623
G1 X91.845 Y131.735 E48.26515
G1 X91.619 Y132.425 E48.2893
G1 X91.451 Y132.818 E48.30352
G1 X91.081 Y133.611 E48.33262
G1 X90.738 Y134.251 E48.35677
G1 X90.506 Y134.606 E48.37088
G1 X90.008 Y135.317 E48.39975
G1 X89.559 Y135.888 E48.42391
G1 X89.269 Y136.198 E48.43803
G1 X88.651 Y136.816 E48.4671
G1 X88.11 Y137.3 E48.49124
G1 X87.77 Y137.555 E48.50538
G1 X87.059 Y138.053 E48.53425
G1 X86.442 Y138.436 E48.5584
G1 X86.067 Y138.627 E48.5724
G1 X85.275 Y138.997 E48.60147
G1 X84.601 Y139.267 E48.62562
G1 X84.187 Y139.393 E48.64002
G1 X83.346 Y139.618 E48.66897
G1 X82.635 Y139.767 E48.69313
G1 X82.214 Y139.817 E48.70723
G1 X81.344 Y139.893 E48.73628
G1 X80.77 Y139.918 E48.75539
G1 X47.772 Y139.918 E49.85291
G1 X47.198 Y139.893 E49.87202
G1 X46.327 Y139.817 E49.9011
G1 X45.608 Y139.714 E49.92526
G1 X45.193 Y139.617 E49.93943
G1 X44.353 Y139.392 E49.96835
G1 X43.663 Y139.166 E49.9925
G1 X43.267 Y138.997 E50.00682
G1 X42.475 Y138.627 E50.0359
G1 X41.835 Y138.283 E50.06006
G1 X41.483 Y138.053 E50.07405
G1 X40.772 Y137.555 E50.10292
G1 X40.201 Y137.106 E50.12708
G1 X39.895 Y136.82 E50.14101
G1 X39.276 Y136.202 E50.1701
G1 X38.791 Y135.661 E50.19427
G1 X38.53 Y135.312 E50.20876
G1 X38.033 Y134.601 E50.23762
G1 X37.65 Y133.984 E50.26177
G1 X37.464 Y133.617 E50.27546
G1 X37.093 Y132.824 E50.30458
G1 X36.822 Y132.15 E50.32874
G1 X36.694 Y131.728 E50.3434
G1 X36.47 Y130.888 E50.37232
G1 X36.322 Y130.177 E50.39647
G1 X36.272 Y129.763 E50.41034
G1 X36.196 Y128.895 E50.43932
G1 X36.171 Y128.319 E50.4585
G1 X36.171 Y36.918 E53.49851
G1 X25.772 Y36.918 E53.84438
G1 X25.026 Y36.876 E53.86923
G1 X24.358 Y36.8 E53.89159
G1 X23.642 Y36.678 E53.91575
G1 X22.926 Y36.472 E53.94053
G1 X22.291 Y36.25 E53.96291
G1 X21.619 Y35.973 E53.98708
G1 X20.963 Y35.612 E54.01198
G1 X20.392 Y35.254 E54.0344
G1 X19.799 Y34.835 E54.05855
G1 X19.231 Y34.329 E54.08385
G1 X18.759 Y33.857 E54.10605
G1 X18.275 Y33.316 E54.1302
